UI/POI/SVG/facilities_outline_24px.svg

<svg xmlns="http://www.w3.org/2000/svg" width="24" height="24" viewBox="0 0 24 24"><rect width="24" height="24" style="fill:none"/><path d="M12,4.05,19,5.6V20H15V17H9v3H5V5.6l7-1.55m0-2L3,4V22h8V19h2v3h8V4L12,2ZM9,12H7v3H9ZM9,7H7v3H9Zm4,5H11v3h2Zm0-5H11v3h2Zm4,5H15v3h2Zm0-5H15v3h2Z"/></svg>

<svg width="24" height="24" viewBox="0 0 24 24" fill="none" xmlns="http://www.w3.org/2000/svg">
<path d="M12 4.05L19 5.6V20H15V17H9V20H5V5.6L12 4.05ZM12 2.05L3 4V22H11V19H13V22H21V4L12 2V2.05ZM9 12H7V15H9V12ZM9 7H7V10H9V7ZM13 12H11V15H13V12ZM13 7H11V10H13V7ZM17 12H15V15H17V12ZM17 7H15V10H17V7Z" fill="#0F1621"/>
</svg>
